public/assets/img/program1.svg

<svg width="73" height="73" viewBox="0 0 73 73" fill="none" xmlns="http://www.w3.org/2000/svg">
<path d="M71.9307 32.5502H67.5644C65.7861 18.4033 54.5969 7.21388 40.4498 5.43565V1.06934C40.4498 0.478635 39.9711 0 39.3805 0H33.6195C33.0289 0 32.5502 0.478635 32.5502 1.06934V5.43451C27.3043 6.09579 22.2996 8.08404 18.0206 11.2165C17.5441 11.5652 17.4406 12.2345 17.7893 12.7108C17.9988 12.9971 18.3237 13.1487 18.6531 13.1487C18.8724 13.1487 19.0935 13.0814 19.2838 12.9421C23.1969 10.0776 27.7615 8.24073 32.5502 7.59171V11.2511C27.2376 12.0799 22.2544 14.6067 18.4306 18.4305C14.6068 22.2543 12.0802 27.2374 11.2513 32.55H7.59171C8.43064 26.3799 11.2622 20.5762 15.6421 16.0988C16.055 15.6766 16.0476 14.9996 15.6254 14.5867C15.2032 14.1737 14.5263 14.1814 14.1132 14.6034C9.34457 19.4782 6.28684 25.819 5.43593 32.55H1.06934C0.478777 32.55 0 33.0287 0 33.6194V39.3804C0 39.9711 0.478777 40.4497 1.06934 40.4497H5.43565C7.21388 54.5966 18.4031 65.786 32.5502 67.5642V71.9307C32.5502 72.5214 33.0289 73 33.6195 73H39.3805C39.9711 73 40.4498 72.5214 40.4498 71.9307V67.5644C54.5969 65.7861 65.7861 54.5969 67.5644 40.4498H71.9307C72.5212 40.4498 73 39.9712 73 39.3805V33.6195C73 33.0288 72.5212 32.5502 71.9307 32.5502ZM65.4083 32.5502H61.7486C60.9198 27.2376 58.393 22.2544 54.5692 18.4306C50.7454 14.6068 45.7623 12.0802 40.4497 11.2513V7.59171C53.414 9.34257 63.6574 19.586 65.4083 32.5502ZM34.6888 2.13867H38.3112V16.1311H34.6888V2.13867ZM2.13867 34.6888H16.131V38.3112H2.13867V34.6888ZM7.59171 40.4498H11.2514C12.0802 45.7624 14.607 50.7456 18.4308 54.5694C22.2546 58.3932 27.2377 60.9198 32.5503 61.7487V65.4084C19.586 63.6574 9.34257 53.414 7.59171 40.4498ZM38.3112 70.8613H34.6888V56.8689H38.3112V70.8613ZM40.4498 65.4083V61.7484C46.0757 60.873 51.2804 58.1188 55.1916 53.925C55.5943 53.4932 55.5708 52.8165 55.1388 52.4137C54.7071 52.0108 54.0304 52.0345 53.6275 52.4663C50.1196 56.2275 45.4771 58.7251 40.4498 59.5815V55.7994C40.4498 55.2087 39.9711 54.73 39.3805 54.73H33.6195C33.0289 54.73 32.5502 55.2087 32.5502 55.7994V59.5825C22.7191 57.9241 15.0756 50.2807 13.4172 40.4496H17.2003C17.7909 40.4496 18.2697 39.9709 18.2697 39.3802V33.6192C18.2697 33.0285 17.7909 32.5499 17.2003 32.5499H13.4172C15.0756 22.7188 22.719 15.0754 32.5502 13.4169V17.2001C32.5502 17.7908 33.0289 18.2694 33.6195 18.2694H39.3805C39.9711 18.2694 40.4498 17.7908 40.4498 17.2001V13.4172C50.2809 15.0756 57.9244 22.719 59.5828 32.5502H55.7997C55.2091 32.5502 54.7303 33.0288 54.7303 33.6195V39.3805C54.7303 39.9712 55.2091 40.4498 55.7997 40.4498H59.5833C59.0922 43.3544 58.0669 46.1045 56.5267 48.6397C56.22 49.1444 56.3807 49.8021 56.8854 50.1089C57.0589 50.2143 57.2504 50.2645 57.4396 50.2645C57.8007 50.2645 58.1533 50.0816 58.3545 49.7504C60.0994 46.8783 61.2376 43.7535 61.7483 40.45H65.4084C63.6574 53.414 53.414 63.6574 40.4498 65.4083ZM70.8613 38.3112H56.869V34.6888H70.8613V38.3112Z" fill="#90A1AE"/>
<path d="M24.9787 33.8248C25.1462 33.8248 25.3162 33.7853 25.4749 33.702L42.9032 24.5522L43.6447 25.9648C43.8509 26.3574 44.4048 26.3797 44.6418 26.0048L47.4889 21.5004C47.7259 21.1255 47.4683 20.6348 47.0251 20.6169L41.7007 20.4026C41.2575 20.3848 40.9613 20.8533 41.1674 21.2461L41.909 22.6587L24.4807 31.8085C23.9578 32.0831 23.7564 32.7294 24.031 33.2524C24.2223 33.6165 24.594 33.8248 24.9787 33.8248Z" fill="#90A1AE"/>
<path d="M50.1825 50.1213H49.0915V29.8747C49.0915 29.284 48.6127 28.8053 48.0222 28.8053H43.4133C42.8228 28.8053 42.344 29.284 42.344 29.8747V50.1213H39.8738V35.3478C39.8738 34.7571 39.395 34.2785 38.8045 34.2785H34.1957C33.6051 34.2785 33.1263 34.7571 33.1263 35.3478V50.1213H30.6562V39.6685C30.6562 39.0778 30.1774 38.5992 29.5868 38.5992H24.978C24.3874 38.5992 23.9086 39.0778 23.9086 39.6685V50.1213H22.8176C22.2271 50.1213 21.7483 50.6 21.7483 51.1907C21.7483 51.7814 22.2271 52.26 22.8176 52.26H50.1828C50.7734 52.26 51.2521 51.7814 51.2521 51.1907C51.2521 50.6 50.7731 50.1213 50.1825 50.1213ZM26.0472 50.1213V40.7379H28.5173V50.1213H26.0472ZM35.2648 50.1213V36.4172H37.735V50.1213H35.2648ZM44.4827 50.1213V30.944H46.9528V50.1213H44.4827Z" fill="#90A1AE"/>
</svg>

<svg width="73" height="73" fill="none" xmlns="http://www.w3.org/2000/svg"><path d="M71.93 32.55h-4.366C65.786 18.403 54.597 7.214 40.45 5.436V1.069C40.45.48 39.97 0 39.38 0h-5.76c-.591 0-1.07.479-1.07 1.07v4.365a31.216 31.216 0 0 0-14.53 5.782 1.07 1.07 0 0 0 1.264 1.725 29.08 29.08 0 0 1 13.266-5.35v3.66a25.634 25.634 0 0 0-14.12 7.178 25.634 25.634 0 0 0-7.179 14.12h-3.66a29.227 29.227 0 0 1 8.051-16.451 1.07 1.07 0 1 0-1.529-1.496A31.368 31.368 0 0 0 5.436 32.55H1.069C.48 32.55 0 33.029 0 33.62v5.76c0 .591.479 1.07 1.07 1.07h4.366C7.214 54.597 18.403 65.786 32.55 67.564v4.367c0 .59.479 1.069 1.07 1.069h5.76c.591 0 1.07-.479 1.07-1.07v-4.366c14.147-1.778 25.336-12.967 27.114-27.114h4.367c.59 0 1.069-.479 1.069-1.07v-5.76c0-.591-.479-1.07-1.07-1.07Zm-6.522 0h-3.66a25.634 25.634 0 0 0-7.179-14.12 25.634 25.634 0 0 0-14.12-7.179v-3.66c12.965 1.752 23.208 11.995 24.96 24.96ZM34.688 2.14h3.623V16.13H34.69V2.14Zm-32.55 32.55h13.993v3.622H2.139V34.69Zm5.454 5.76h3.66a25.634 25.634 0 0 0 7.179 14.12 25.634 25.634 0 0 0 14.12 7.18v3.66C19.585 63.656 9.342 53.413 7.59 40.448Zm30.72 30.412h-3.623V56.87h3.622V70.86Zm2.138-5.453v-3.66a25.557 25.557 0 0 0 14.742-7.823 1.07 1.07 0 0 0-1.565-1.459 23.422 23.422 0 0 1-13.177 7.115V55.8c0-.59-.479-1.069-1.07-1.069h-5.76c-.591 0-1.07.479-1.07 1.07v3.783A23.282 23.282 0 0 1 13.417 40.45H17.2c.59 0 1.07-.48 1.07-1.07v-5.76c0-.591-.48-1.07-1.07-1.07h-3.783A23.282 23.282 0 0 1 32.55 13.417V17.2c0 .59.479 1.07 1.07 1.07h5.76c.591 0 1.07-.48 1.07-1.07v-3.783A23.282 23.282 0 0 1 59.583 32.55H55.8c-.59 0-1.07.479-1.07 1.07v5.76c0 .591.48 1.07 1.07 1.07h3.783a23.114 23.114 0 0 1-3.056 8.19 1.07 1.07 0 0 0 1.828 1.11 25.237 25.237 0 0 0 3.393-9.3h3.66c-1.75 12.964-11.994 23.207-24.958 24.958ZM70.86 38.311H56.87V34.69h13.992v3.622Z" fill="#90A1AE"/><path d="M24.979 33.825c.167 0 .337-.04.496-.123l17.428-9.15.742 1.413c.206.392.76.415.997.04l2.847-4.505a.576.576 0 0 0-.464-.883l-5.324-.214a.576.576 0 0 0-.534.843l.742 1.413-17.428 9.15a1.07 1.07 0 0 0 .498 2.016ZM50.182 50.121h-1.09V29.875c0-.591-.48-1.07-1.07-1.07h-4.609c-.59 0-1.069.479-1.069 1.07V50.12h-2.47V35.348c0-.59-.479-1.07-1.07-1.07h-4.608c-.59 0-1.07.48-1.07 1.07V50.12h-2.47V39.668c0-.59-.479-1.069-1.07-1.069h-4.608c-.59 0-1.07.479-1.07 1.07V50.12h-1.09a1.07 1.07 0 0 0 0 2.139h27.365a1.07 1.07 0 1 0 0-2.139Zm-24.135 0v-9.383h2.47v9.383h-2.47Zm9.218 0V36.417h2.47v13.704h-2.47Zm9.218 0V30.944h2.47v19.177h-2.47Z" fill="#90A1AE"/></svg>
